X: 26534
T: Michael's
R: mazurka
M: 3/4
K: Gmajor
|:GF|G4 A/B/c|B3 AGF|EG GB AG|Fd FE DF|
G4 A/B/c|B3 AGF|EG GB A/G/F|G4 F2|
G4 A/B/c|B3 AGF|EG GB AG|Fd Dc DF|
G2 GA Bc|Bd dc BG|Ec cB AF|G4 D2:|
K:GDor
|:G3 AB<c|d3 cBG|A^F AF DF|G>A B/c/d g2|
DG GA Bc|d3 cBG|A^F AF DF|1 G4:|2 G3||
K:G
ABd|:g6|d4 cB|A2 a3 g|fd cd ef|
g4 b2|g3 dcB|A2 a3 g|fd cA FD|
G2 AB G2|A2 Bc A2|B2 cd B2|c2 de c2|
d2 g3 e|f3 g a/g/f|g3 fga|1 g3 dBd:|2 g4||

